Newaita-dark/apps/16/mongodb-compass.svg

<svg height="16pt" viewBox="0 0 16 16" width="16pt" xmlns="http://www.w3.org/2000/svg" xmlns:xlink="http://www.w3.org/1999/xlink"><linearGradient id="a"><stop offset="0" stop-opacity=".313726"/><stop offset=".222222" stop-opacity=".27451"/><stop offset="1" stop-opacity="0"/></linearGradient><radialGradient id="b" cx="450.908936" cy="189.579361" gradientTransform="matrix(.00000009 -.0341829 -.0703192 -.00000004 21.434673 29.657754)" gradientUnits="userSpaceOnUse" r="21.166656" xlink:href="#a"/><radialGradient id="c" cx="450.908936" cy="189.579361" gradientTransform="matrix(-.00000009 .0341829 .0703192 .00000004 -5.558157 -1.458449)" gradientUnits="userSpaceOnUse" r="21.166656" xlink:href="#a"/><radialGradient id="d" cx="450.908936" cy="189.579361" gradientTransform="matrix(-.00000009 -.0341829 .0703192 -.00000004 -5.558157 29.657754)" gradientUnits="userSpaceOnUse" r="21.166656" xlink:href="#a"/><radialGradient id="e" cx="450.908936" cy="189.579361" gradientTransform="matrix(.00000009 .0341829 -.0703192 .00000004 21.434672 -1.458449)" gradientUnits="userSpaceOnUse" r="21.166656" xlink:href="#a"/><linearGradient id="f" gradientTransform="matrix(.00668003 0 0 .0273463 6.232692 7.714285)" gradientUnits="userSpaceOnUse" x1="255.323059" x2="255.323044" y1="233.5" y2="254.666656"><stop offset="0" stop-opacity=".27451"/><stop offset="1" stop-opacity="0"/></linearGradient><linearGradient id="g" gradientUnits="userSpaceOnUse" x1="7.938262" x2="7.938262" y1="14.0169675" y2="1.44805249998"><stop offset="0" stop-color="#424242"/><stop offset="1" stop-color="#616161"/></linearGradient><linearGradient id="h"><stop offset="0" stop-color="#66bb6a"/><stop offset="1" stop-color="#81c784"/></linearGradient><linearGradient id="i" gradientUnits="userSpaceOnUse" x1="7.938262" x2="7.938262" xlink:href="#h" y1="14.0169665" y2="1.44805149998"/><linearGradient id="j" gradientUnits="userSpaceOnUse" x1="254" x2="254" y1="127.666656" y2="74.75"><stop offset="0" stop-color="#bdbdbd"/><stop offset="1" stop-color="#e0e0e0"/></linearGradient><linearGradient id="k" gradientUnits="userSpaceOnUse" x1="7.60750125002" x2="7.60750125002" y1="9.38631475001" y2="3.76337899999"><stop offset="0" stop-color="#9ccc65"/><stop offset="1" stop-color="#aed581"/></linearGradient><linearGradient id="l" gradientUnits="userSpaceOnUse" x1="8.93054475" x2="8.93054475" xlink:href="#h" y1="9.38631475001" y2="3.76337899999"/><path d="m8.269531 14.101562h1.324219v-.582031h-1.324219zm0 0" fill="url(#b)"/><path d="m7.609375 14.101562h-1.324219v.578126h1.324219zm0 0" fill="url(#c)"/><path d="m7.609375 14.101562h-1.324219v-.582031h1.324219zm0 0" fill="url(#d)"/><path d="m8.269531 14.101562h1.324219v.578126h-1.324219zm0 0" fill="url(#e)"/><path d="m7.609375 13.953125h.660156v.726563h-.660156zm0 0" fill="url(#f)"/><path d="m7.9375 1.449219c4.300781 0 5.953125.992187 5.953125 1.984375 0 4.960937-3.636719 10.582031-5.953125 10.582031s-5.953125-5.621094-5.953125-10.582031c0-.992188 1.984375-1.984375 5.953125-1.984375zm0 0" fill="url(#g)"/><path d="m7.9375 1.449219c-3.96875 0-5.953125.992187-5.953125 1.984375 0 4.960937 3.636719 10.582031 5.953125 10.582031s5.953125-5.621094 5.953125-10.582031c0-.992188-1.652344-1.984375-5.953125-1.984375zm0 .660156c3.851562 0 5.332031.890625 5.332031 1.777344 0 4.441406-3.257812 9.476562-5.332031 9.476562s-5.332031-5.035156-5.332031-9.476562c0-.886719 1.777343-1.777344 5.332031-1.777344zm0 0" fill="url(#i)"/><path d="m13.890625 3.355469c-.105469 4.910156-3.671875 10.367187-5.953125 10.367187s-5.84375-5.457031-5.949219-10.359375c-.003906.019531-.003906.039063-.003906.058594 0 4.960937 3.636719 10.585937 5.953125 10.585937s5.953125-5.625 5.953125-10.585937c0-.023437 0-.042969 0-.066406zm0 0" fill-opacity=".235294"/><path d="m7.9375 1.449219c-3.96875 0-5.953125.992187-5.953125 1.984375v.128906c.046875-.980469 2.03125-1.949219 5.953125-1.949219 4.246094 0 5.914062.96875 5.953125 1.949219 0-.042969 0-.085938 0-.128906 0-.992188-1.652344-1.984375-5.953125-1.984375zm0 0" fill="#fff" fill-opacity=".392157"/><path d="m7.9375 4.089844s-2.476562 1.953125-2.222656 3.667968c.179687 1.214844 1.332031 1.707032 1.902344 1.875-.007813.027344-.007813.054688-.007813.082032v.992187c0 .183594.144531.328125.328125.328125s.332031-.144531.332031-.328125v-.992187c0-.027344-.003906-.054688-.011719-.082032.574219-.167968 1.726563-.660156 1.90625-1.875.25-1.714843-2.226562-3.667968-2.226562-3.667968zm0 0" fill-opacity=".313726"/><path d="m253.975747 74.722333c5.874439 0 10.623985 4.749546 10.623985 10.623985v31.746969c0 5.874439-4.749546 10.623985-10.623985 10.623985s-10.498998-4.749546-10.498998-10.623985v-31.746969c0-5.874439 4.624559-10.623985 10.498998-10.623985zm0 0" fill="url(#j)" stroke="#78909c" stroke-linecap="round" stroke-linejoin="round" stroke-width="2" transform="matrix(.031253 0 0 .031253 0 6.719392)"/><path d="m7.9375 1.402344c-1.988281 0-3.480469.246094-4.480469.621094-.5.1875-.878906.40625-1.132812.644531-.253907.242187-.386719.5-.386719.765625 0 2.492187.914062 5.144531 2.117188 7.175781.597656 1.015625 1.273437 1.878906 1.945312 2.484375.671875.609375 1.339844.96875 1.9375.96875s1.269531-.359375 1.9375-.96875c.671875-.605469 1.347656-1.46875 1.949219-2.484375 1.203125-2.03125 2.113281-4.683594 2.113281-7.175781 0-.261719-.109375-.523438-.335938-.761719-.230468-.238281-.578124-.460937-1.058593-.648437-.957031-.375-2.449219-.621094-4.605469-.621094zm0 .09375c2.148438 0 3.632812.246094 4.574219.617187.46875.183594.804687.398438 1.019531.621094.21875.226563.3125.464844.3125.699219 0 2.46875-.90625 5.109375-2.101562 7.128906-.597657 1.007812-1.265626 1.863281-1.929688 2.464844-.660156.597656-1.3125.941406-1.875.941406-.558594 0-1.210938-.34375-1.875-.941406-.660156-.601563-1.332031-1.457032-1.929688-2.464844-1.195312-2.019531-2.101562-4.660156-2.101562-7.128906 0-.234375.117188-.46875.359375-.695313.238281-.226562.605469-.441406 1.097656-.625.984375-.371093 2.46875-.617187 4.449219-.617187zm0 .566406c-1.78125 0-3.117188.222656-4.015625.558594-.445313.167968-.785156.363281-1.011719.578125-.230468.214843-.351562.449219-.351562.6875 0 2.234375.820312 4.609375 1.894531 6.429687.539063.910156 1.144531 1.679688 1.746094 2.226563.601562.546875 1.203125.867187 1.738281.867187.539062 0 1.136719-.320312 1.738281-.867187.601563-.546875 1.207031-1.316407 1.746094-2.226563 1.078125-1.820312 1.894531-4.195312 1.894531-6.429687 0-.234375-.097656-.46875-.304687-.683594s-.515625-.414063-.945313-.582031c-.863281-.335938-2.199218-.558594-4.128906-.558594zm0 .09375c1.921875 0 3.25.222656 4.09375.550781.421875.167969.71875.359375.914062.558594.191407.203125.277344.410156.277344.621094 0 2.210937-.8125 4.574219-1.882812 6.378906-.535156.90625-1.132813 1.671875-1.726563 2.207031-.589843.539063-1.175781.84375-1.675781.84375s-1.082031-.304687-1.675781-.84375c-.59375-.535156-1.191407-1.300781-1.726563-2.207031-1.070312-1.804687-1.882812-4.167969-1.882812-6.378906 0-.207031.105468-.417969.320312-.617188.214844-.203125.542969-.394531.984375-.5625.878907-.328125 2.207031-.550781 3.980469-.550781zm0 0" fill="#212121"/><path d="m7.9375 3.761719s-2.476562 1.953125-2.222656 3.671875c.238281 1.621094 2.222656 1.953125 2.222656 1.953125zm0 0" fill="url(#k)"/><path d="m7.9375 3.761719s2.476562 1.953125 2.226562 3.671875c-.242187 1.621094-2.226562 1.953125-2.226562 1.953125zm0 0" fill="url(#l)"/><path d="m7.9375 3.761719s-2.316406 1.828125-2.238281 3.5c.070312-1.625 2.238281-3.332031 2.238281-3.332031s2.167969 1.707031 2.242188 3.332031c.074218-1.671875-2.242188-3.5-2.242188-3.5zm-.328125 5.707031v.082031c0-.027343 0-.054687.007813-.078125-.003907 0-.007813-.003906-.007813-.003906zm.660156 0c-.003906 0-.007812.003906-.011719.003906.007813.023438.011719.050782.011719.078125zm0 0" fill="#fff" fill-opacity=".588235"/><path d="m959.908384 454.917211s-299.498974 236.197929-268.793244 444.052107c21.73021 146.442716 161.086988 205.964594 230.056783 226.750012-.944791 2.834375-.944791 6.141146-.944791 9.447917v119.988548c0 22.202605 17.478646 40.153648 39.681252 40.153648 22.202605 0 40.153648-17.951043 40.153648-40.153648v-119.988548c0-3.306771-.472396-6.613542-1.417188-9.447917 69.442191-20.785418 208.798969-80.307296 230.529179-226.750012 30.233335-207.854178-269.265639-444.052107-269.265639-444.052107zm0 0" fill="none" stroke="#212121" stroke-linecap="round" stroke-linejoin="round" stroke-width="11.338583" transform="scale(.00826902)"/></svg>

<?xml version="1.0" encoding="UTF-8"?>
<svg xmlns="http://www.w3.org/2000/svg" xmlns:xlink="http://www.w3.org/1999/xlink" width="16pt" height="16pt" viewBox="0 0 16 16" version="1.1">
<defs>
<radialGradient id="radial0" gradientUnits="userSpaceOnUse" cx="450.908936" cy="189.579361" fx="450.908936" fy="189.579361" r="21.166656" gradientTransform="matrix(0.0000000870852,-0.0341829,-0.0703192,-0.0000000444231,21.434673,29.657754)">
<stop offset="0" style="stop-color:rgb(0%,0%,0%);stop-opacity:0.313726;"/>
<stop offset="0.222222" style="stop-color:rgb(0%,0%,0%);stop-opacity:0.27451;"/>
<stop offset="1" style="stop-color:rgb(0%,0%,0%);stop-opacity:0;"/>
</radialGradient>
<radialGradient id="radial1" gradientUnits="userSpaceOnUse" cx="450.908936" cy="189.579361" fx="450.908936" fy="189.579361" r="21.166656" gradientTransform="matrix(-0.0000000870852,0.0341829,0.0703192,0.0000000444231,-5.558157,-1.458449)">
<stop offset="0" style="stop-color:rgb(0%,0%,0%);stop-opacity:0.313726;"/>
<stop offset="0.222222" style="stop-color:rgb(0%,0%,0%);stop-opacity:0.27451;"/>
<stop offset="1" style="stop-color:rgb(0%,0%,0%);stop-opacity:0;"/>
</radialGradient>
<radialGradient id="radial2" gradientUnits="userSpaceOnUse" cx="450.908936" cy="189.579361" fx="450.908936" fy="189.579361" r="21.166656" gradientTransform="matrix(-0.0000000870852,-0.0341829,0.0703192,-0.0000000444231,-5.558157,29.657754)">
<stop offset="0" style="stop-color:rgb(0%,0%,0%);stop-opacity:0.313726;"/>
<stop offset="0.222222" style="stop-color:rgb(0%,0%,0%);stop-opacity:0.27451;"/>
<stop offset="1" style="stop-color:rgb(0%,0%,0%);stop-opacity:0;"/>
</radialGradient>
<radialGradient id="radial3" gradientUnits="userSpaceOnUse" cx="450.908936" cy="189.579361" fx="450.908936" fy="189.579361" r="21.166656" gradientTransform="matrix(0.0000000870852,0.0341829,-0.0703192,0.0000000444231,21.434672,-1.458449)">
<stop offset="0" style="stop-color:rgb(0%,0%,0%);stop-opacity:0.313726;"/>
<stop offset="0.222222" style="stop-color:rgb(0%,0%,0%);stop-opacity:0.27451;"/>
<stop offset="1" style="stop-color:rgb(0%,0%,0%);stop-opacity:0;"/>
</radialGradient>
<linearGradient id="linear0" gradientUnits="userSpaceOnUse" x1="255.323059" y1="233.5" x2="255.323044" y2="254.666656" gradientTransform="matrix(0.00668003,0,0,0.0273463,6.232692,7.714285)">
<stop offset="0" style="stop-color:rgb(0%,0%,0%);stop-opacity:0.27451;"/>
<stop offset="1" style="stop-color:rgb(0%,0%,0%);stop-opacity:0;"/>
</linearGradient>
<linearGradient id="linear1" gradientUnits="userSpaceOnUse" x1="254" y1="233.5" x2="254" y2="-168.666672" gradientTransform="matrix(0.031253,0,0,0.031253,0,6.719392)">
<stop offset="0" style="stop-color:rgb(25.882354%,25.882354%,25.882354%);stop-opacity:1;"/>
<stop offset="1" style="stop-color:rgb(38.039216%,38.039216%,38.039216%);stop-opacity:1;"/>
</linearGradient>
<linearGradient id="linear2" gradientUnits="userSpaceOnUse" x1="254" y1="233.5" x2="254" y2="-168.666672" gradientTransform="matrix(0.031253,0,0,0.031253,0,6.719391)">
<stop offset="0" style="stop-color:rgb(40.000001%,73.333335%,41.568628%);stop-opacity:1;"/>
<stop offset="1" style="stop-color:rgb(50.588238%,78.039217%,51.764709%);stop-opacity:1;"/>
</linearGradient>
<linearGradient id="linear3" gradientUnits="userSpaceOnUse" x1="254" y1="127.666656" x2="254" y2="74.75" >
<stop offset="0" style="stop-color:rgb(74.117649%,74.117649%,74.117649%);stop-opacity:1;"/>
<stop offset="1" style="stop-color:rgb(87.843138%,87.843138%,87.843138%);stop-opacity:1;"/>
</linearGradient>
<linearGradient id="linear4" gradientUnits="userSpaceOnUse" x1="243.416672" y1="85.333336" x2="243.416672" y2="-94.583336" gradientTransform="matrix(0.031253,0,0,0.031253,0,6.719392)">
<stop offset="0" style="stop-color:rgb(61.176473%,80.000001%,39.607844%);stop-opacity:1;"/>
<stop offset="1" style="stop-color:rgb(68.235296%,83.529413%,50.588238%);stop-opacity:1;"/>
</linearGradient>
<linearGradient id="linear5" gradientUnits="userSpaceOnUse" x1="285.75" y1="85.333336" x2="285.75" y2="-94.583336" gradientTransform="matrix(0.031253,0,0,0.031253,0,6.719392)">
<stop offset="0" style="stop-color:rgb(40.000001%,73.333335%,41.568628%);stop-opacity:1;"/>
<stop offset="1" style="stop-color:rgb(50.588238%,78.039217%,51.764709%);stop-opacity:1;"/>
</linearGradient>
</defs>
<g id="surface1">
<path style=" stroke:none;fill-rule:nonzero;fill:url(#radial0);" d="M 8.269531 14.101562 L 9.59375 14.101562 L 9.59375 13.519531 L 8.269531 13.519531 Z M 8.269531 14.101562 "/>
<path style=" stroke:none;fill-rule:nonzero;fill:url(#radial1);" d="M 7.609375 14.101562 L 6.285156 14.101562 L 6.285156 14.679688 L 7.609375 14.679688 Z M 7.609375 14.101562 "/>
<path style=" stroke:none;fill-rule:nonzero;fill:url(#radial2);" d="M 7.609375 14.101562 L 6.285156 14.101562 L 6.285156 13.519531 L 7.609375 13.519531 Z M 7.609375 14.101562 "/>
<path style=" stroke:none;fill-rule:nonzero;fill:url(#radial3);" d="M 8.269531 14.101562 L 9.59375 14.101562 L 9.59375 14.679688 L 8.269531 14.679688 Z M 8.269531 14.101562 "/>
<path style=" stroke:none;fill-rule:nonzero;fill:url(#linear0);" d="M 7.609375 13.953125 L 8.269531 13.953125 L 8.269531 14.679688 L 7.609375 14.679688 Z M 7.609375 13.953125 "/>
<path style=" stroke:none;fill-rule:nonzero;fill:url(#linear1);" d="M 7.9375 1.449219 C 12.238281 1.449219 13.890625 2.441406 13.890625 3.433594 C 13.890625 8.394531 10.253906 14.015625 7.9375 14.015625 C 5.621094 14.015625 1.984375 8.394531 1.984375 3.433594 C 1.984375 2.441406 3.96875 1.449219 7.9375 1.449219 Z M 7.9375 1.449219 "/>
<path style=" stroke:none;fill-rule:nonzero;fill:url(#linear2);" d="M 7.9375 1.449219 C 3.96875 1.449219 1.984375 2.441406 1.984375 3.433594 C 1.984375 8.394531 5.621094 14.015625 7.9375 14.015625 C 10.253906 14.015625 13.890625 8.394531 13.890625 3.433594 C 13.890625 2.441406 12.238281 1.449219 7.9375 1.449219 Z M 7.9375 2.109375 C 11.789062 2.109375 13.269531 3 13.269531 3.886719 C 13.269531 8.328125 10.011719 13.363281 7.9375 13.363281 C 5.863281 13.363281 2.605469 8.328125 2.605469 3.886719 C 2.605469 3 4.382812 2.109375 7.9375 2.109375 Z M 7.9375 2.109375 "/>
<path style=" stroke:none;fill-rule:nonzero;fill:rgb(0%,0%,0%);fill-opacity:0.235294;" d="M 13.890625 3.355469 C 13.785156 8.265625 10.21875 13.722656 7.9375 13.722656 C 5.65625 13.722656 2.09375 8.265625 1.988281 3.363281 C 1.984375 3.382812 1.984375 3.402344 1.984375 3.421875 C 1.984375 8.382812 5.621094 14.007812 7.9375 14.007812 C 10.253906 14.007812 13.890625 8.382812 13.890625 3.421875 C 13.890625 3.398438 13.890625 3.378906 13.890625 3.355469 Z M 13.890625 3.355469 "/>
<path style=" stroke:none;fill-rule:nonzero;fill:rgb(100%,100%,100%);fill-opacity:0.392157;" d="M 7.9375 1.449219 C 3.96875 1.449219 1.984375 2.441406 1.984375 3.433594 C 1.984375 3.476562 1.984375 3.519531 1.984375 3.5625 C 2.03125 2.582031 4.015625 1.613281 7.9375 1.613281 C 12.183594 1.613281 13.851562 2.582031 13.890625 3.5625 C 13.890625 3.519531 13.890625 3.476562 13.890625 3.433594 C 13.890625 2.441406 12.238281 1.449219 7.9375 1.449219 Z M 7.9375 1.449219 "/>
<path style=" stroke:none;fill-rule:nonzero;fill:rgb(0%,0%,0%);fill-opacity:0.313726;" d="M 7.9375 4.089844 C 7.9375 4.089844 5.460938 6.042969 5.714844 7.757812 C 5.894531 8.972656 7.046875 9.464844 7.617188 9.632812 C 7.609375 9.660156 7.609375 9.6875 7.609375 9.714844 L 7.609375 10.707031 C 7.609375 10.890625 7.753906 11.035156 7.9375 11.035156 C 8.121094 11.035156 8.269531 10.890625 8.269531 10.707031 L 8.269531 9.714844 C 8.269531 9.6875 8.265625 9.660156 8.257812 9.632812 C 8.832031 9.464844 9.984375 8.972656 10.164062 7.757812 C 10.414062 6.042969 7.9375 4.089844 7.9375 4.089844 Z M 7.9375 4.089844 "/>
<path style="fill-rule:nonzero;fill:url(#linear3);stroke-width:2;stroke-linecap:round;stroke-linejoin:round;stroke:rgb(47.058824%,56.470591%,61.176473%);stroke-opacity:1;stroke-miterlimit:4;" d="M 253.975747 74.722333 C 259.850186 74.722333 264.599732 79.471879 264.599732 85.346318 L 264.599732 117.093287 C 264.599732 122.967726 259.850186 127.717272 253.975747 127.717272 C 248.101308 127.717272 243.476749 122.967726 243.476749 117.093287 L 243.476749 85.346318 C 243.476749 79.471879 248.101308 74.722333 253.975747 74.722333 Z M 253.975747 74.722333 " transform="matrix(0.031253,0,0,0.031253,0,6.719392)"/>
<path style=" stroke:none;fill-rule:nonzero;fill:rgb(12.941177%,12.941177%,12.941177%);fill-opacity:1;" d="M 7.9375 1.402344 C 5.949219 1.402344 4.457031 1.648438 3.457031 2.023438 C 2.957031 2.210938 2.578125 2.429688 2.324219 2.667969 C 2.070312 2.910156 1.9375 3.167969 1.9375 3.433594 C 1.9375 5.925781 2.851562 8.578125 4.054688 10.609375 C 4.652344 11.625 5.328125 12.488281 6 13.09375 C 6.671875 13.703125 7.339844 14.0625 7.9375 14.0625 C 8.535156 14.0625 9.207031 13.703125 9.875 13.09375 C 10.546875 12.488281 11.222656 11.625 11.824219 10.609375 C 13.027344 8.578125 13.9375 5.925781 13.9375 3.433594 C 13.9375 3.171875 13.828125 2.910156 13.601562 2.671875 C 13.371094 2.433594 13.023438 2.210938 12.542969 2.023438 C 11.585938 1.648438 10.09375 1.402344 7.9375 1.402344 Z M 7.9375 1.496094 C 10.085938 1.496094 11.570312 1.742188 12.511719 2.113281 C 12.980469 2.296875 13.316406 2.511719 13.53125 2.734375 C 13.75 2.960938 13.84375 3.199219 13.84375 3.433594 C 13.84375 5.902344 12.9375 8.542969 11.742188 10.5625 C 11.144531 11.570312 10.476562 12.425781 9.8125 13.027344 C 9.152344 13.625 8.5 13.96875 7.9375 13.96875 C 7.378906 13.96875 6.726562 13.625 6.0625 13.027344 C 5.402344 12.425781 4.730469 11.570312 4.132812 10.5625 C 2.9375 8.542969 2.03125 5.902344 2.03125 3.433594 C 2.03125 3.199219 2.148438 2.964844 2.390625 2.738281 C 2.628906 2.511719 2.996094 2.296875 3.488281 2.113281 C 4.472656 1.742188 5.957031 1.496094 7.9375 1.496094 Z M 7.9375 2.0625 C 6.15625 2.0625 4.820312 2.285156 3.921875 2.621094 C 3.476562 2.789062 3.136719 2.984375 2.910156 3.199219 C 2.679688 3.414062 2.558594 3.648438 2.558594 3.886719 C 2.558594 6.121094 3.378906 8.496094 4.453125 10.316406 C 4.992188 11.226562 5.597656 11.996094 6.199219 12.542969 C 6.800781 13.089844 7.402344 13.410156 7.9375 13.410156 C 8.476562 13.410156 9.074219 13.089844 9.675781 12.542969 C 10.277344 11.996094 10.882812 11.226562 11.421875 10.316406 C 12.5 8.496094 13.316406 6.121094 13.316406 3.886719 C 13.316406 3.652344 13.21875 3.417969 13.011719 3.203125 C 12.804688 2.988281 12.496094 2.789062 12.066406 2.621094 C 11.203125 2.285156 9.867188 2.0625 7.9375 2.0625 Z M 7.9375 2.15625 C 9.859375 2.15625 11.1875 2.378906 12.03125 2.707031 C 12.453125 2.875 12.75 3.066406 12.945312 3.265625 C 13.136719 3.46875 13.222656 3.675781 13.222656 3.886719 C 13.222656 6.097656 12.410156 8.460938 11.339844 10.265625 C 10.804688 11.171875 10.207031 11.9375 9.613281 12.472656 C 9.023438 13.011719 8.4375 13.316406 7.9375 13.316406 C 7.4375 13.316406 6.855469 13.011719 6.261719 12.472656 C 5.667969 11.9375 5.070312 11.171875 4.535156 10.265625 C 3.464844 8.460938 2.652344 6.097656 2.652344 3.886719 C 2.652344 3.679688 2.757812 3.46875 2.972656 3.269531 C 3.1875 3.066406 3.515625 2.875 3.957031 2.707031 C 4.835938 2.378906 6.164062 2.15625 7.9375 2.15625 Z M 7.9375 2.15625 "/>
<path style=" stroke:none;fill-rule:nonzero;fill:url(#linear4);" d="M 7.9375 3.761719 C 7.9375 3.761719 5.460938 5.714844 5.714844 7.433594 C 5.953125 9.054688 7.9375 9.386719 7.9375 9.386719 Z M 7.9375 3.761719 "/>
<path style=" stroke:none;fill-rule:nonzero;fill:url(#linear5);" d="M 7.9375 3.761719 C 7.9375 3.761719 10.414062 5.714844 10.164062 7.433594 C 9.921875 9.054688 7.9375 9.386719 7.9375 9.386719 Z M 7.9375 3.761719 "/>
<path style=" stroke:none;fill-rule:nonzero;fill:rgb(100%,100%,100%);fill-opacity:0.588235;" d="M 7.9375 3.761719 C 7.9375 3.761719 5.621094 5.589844 5.699219 7.261719 C 5.769531 5.636719 7.9375 3.929688 7.9375 3.929688 C 7.9375 3.929688 10.105469 5.636719 10.179688 7.261719 C 10.253906 5.589844 7.9375 3.761719 7.9375 3.761719 Z M 7.609375 9.46875 L 7.609375 9.550781 C 7.609375 9.523438 7.609375 9.496094 7.617188 9.472656 C 7.613281 9.472656 7.609375 9.46875 7.609375 9.46875 Z M 8.269531 9.46875 C 8.265625 9.46875 8.261719 9.472656 8.257812 9.472656 C 8.265625 9.496094 8.269531 9.523438 8.269531 9.550781 Z M 8.269531 9.46875 "/>
<path style="fill:none;stroke-width:11.338583;stroke-linecap:round;stroke-linejoin:round;stroke:rgb(12.941177%,12.941177%,12.941177%);stroke-opacity:1;stroke-miterlimit:4;" d="M 959.908384 454.917211 C 959.908384 454.917211 660.40941 691.11514 691.11514 898.969318 C 712.84535 1045.412034 852.202128 1104.933912 921.171923 1125.71933 C 920.227132 1128.553705 920.227132 1131.860476 920.227132 1135.167247 L 920.227132 1255.155795 C 920.227132 1277.3584 937.705778 1295.309443 959.908384 1295.309443 C 982.110989 1295.309443 1000.062032 1277.3584 1000.062032 1255.155795 L 1000.062032 1135.167247 C 1000.062032 1131.860476 999.589636 1128.553705 998.644844 1125.71933 C 1068.087035 1104.933912 1207.443813 1045.412034 1229.174023 898.969318 C 1259.407358 691.11514 959.908384 454.917211 959.908384 454.917211 Z M 959.908384 454.917211 " transform="matrix(0.00826902,0,0,0.00826902,0,0)"/>
</g>
</svg>
